!!!OTL: 455. Die Asiatische Banise
!!!ODT: 1784
!!!ARE: Europa, Mitteleuropa, Deutschland
!!!SCT: B0455
!!!YEM: Copyright 1995, estate of Helmut Schaffrath.
**kern
*ICvox
*Ivox
*clefG2
*M4/4
*met(c)
*k[f#]
*G:
=1
{4g
4a
4b
4dd
=2
4cc
4b
4a
4a;}
=3
{4b/
4a
4g
4a
=4
4g
4f#
2g}
=5
{4g
4a
4b
4dd
=6
4cc
4b
4a
4a;}
=7
{4b/
4a
4g
4a
=8
4g
4f#
2g}
=9
{4f#
4g
4a
4a
=10
4g
4f#
4e
4e;}
=11
{4f#
4g
4a
4b
=12
4cc
4b
2a;}
=13
{4g
4a
4b
4dd
=14
4cc
4b
4a
4a;}
=15
{4b/
4a
4g
4a
=16
4g
4f#
2g;}
==
!!!AGN: Liebes - Lied, Leid, Klage, Tod
!!!GTL: Liebeslieder - Liebesleid
!!!ONB: ESAC (Essen Associative Code) Database: BOEHME
!!!AMT: simple quadruple
!!!AIN: vox
!!!EED: Helmut Schaffrath
!!!EEV: 1.0
!!Mel. 1784.
!!!URL-scan: https://archive.org/details/BoehmeVtLieder1895/page/n367/mode/2up
!!!ENC: Anna Maria Matuszewska
!!!EEV: 2024/09/07
*-
